!!!!SEGMENT: pl-wtm--r-993_krogulski-jozef-wladyslaw--rzuciwszy-stanu-mozoly.krn
!!!cenid: 18xx:2082
!!!COM: Krogulski, Józef Władysław
!!!COM-rismID: pe30001797
!!!CDT: 1815/10/04-1842/01/09
!!!CNT: Polish
!!!OTL: Rzuciwszy stanu mozoły
!!!PDT: 1837
!!!AGN: Secular
!!!SMS-siglum: PL-Wtm
!!!SMS-shelfmark: R 993
!!!SMS-shelfwork: W
!!!SMS-variant:
!!!SMS-altvar:
!!!NIFC-rismSourceID: 1001085572
!!!NIFC-islandoraID:
!!!URL-pdf-islandora:
!!!URL-scan:
!!!ONB-nifc:
!!!AIN: 1 tenor
!!!OMD: Allegro
!!!key: E-
**kern	**text	**mod-text
*Itenor	*	*
*ICvox	*	*
*I"Tenore 2do	*	*
*mI"Tenore II	*	*
*I'T 2	*	*
*mI'T II	*	*
*clefG2	*	*
*mclefGv2	*	*
!LO:MO:mod=*null:null	!	!
*ITrd7c12	*	*
*k[b-e-a-]	*	*
*E-:	*	*
*M6/8	*	*
=1	=1	=1
!LO:TX:t=P:problem=metrum zapisane ułamkiem	!	!
8G/	Rzu-	Rzu-
8G/	-ci-	-ci-
8G/	-wszy	-wszy
!LO:TX:t=Wiersz J.M. Wiślickiego i Muzyka J.W. Krogulskiego\n ułożone w Czerniakowie d. 25 Maja 1837 . —:mod=	!	!
8G/	sta-	sta-
8G/	-nu	-nu
8G/	mo-	mo-
=2	=2	=2
4.B-\	-zo-	-zo-
8B-\	-ły	-ły,
8B-\	śpie-	spie-
8B-\	-szem	-szę,
=3	=3	=3
!LO:TX:t=P:problem=korekta tekstu	!	!
8A-/L	śpie-	spie-
8G/J	.	.
8A-/	-szem	-szę
8A-/L	do	do
8G/J	.	.
8A-/	przy-	przy-
!!LO:LB:g=original
=4	=4	=4
4B-\	-je-	-je-
8c\	-mnéj	-mnej
4c\	wios-	wios-
8B-\	-ki	-ki,
=5	=5	=5
4r	.	.
8r	.	.
8r	.	.
8d\	niech	niech
8c#X\	bies	bies
=6	=6	=6
8d\	po-	po-
8B-\	-rwie	-rwie,
8r	.	.
8r	.	.
8d\	niech	niech
8d\	bies	bies
=7	=7	=7
4.e-\	po-	po-
8e-\	-rwie	-rwie
8r	.	.
8r	.	.
!!LO:LB:g=original
=8	=8	=8
!LO:TX:t=P:korekta:problem	!	!
4.c\	nu-	nu-
!LO:TX:t=P:korekta:problem	!	!
4.c\	-dy	-dy,
=9	=9	=9
4.B-\	tro-	tro-
8B-\	-ski	-ski.
8r	.	.
8r	.	.
=10	=10	=10
!LO:TX:t=P:korekta:problem	!	!
!LO:TX:a:t=2.:mod=	!	!
2.r	.	.
=11	=11	=11
2.r	.	.
=12	=12	=12
8BB-/L	my	My
8C/J	.	.
8D/	za-	za-
8E-/L	-nuć-	-nuć-
8F/J	.	.
8G/	-my	-my
=13	=13	=13
8A-/L	śpiew	śpiew
8G/J	.	.
8F/	we-	we-
4G/	-so-	-so-
8E-/	-ły	-ły,
!!LO:LB:g=original
=14	=14	=14
!LO:TX:t=P:problem=korekta tekstu	!	!
4B-\	Spiew	śpiew
8B-\	we-	we-
4B-\	-so-	-so-
8B-\	-ły	-ły,
=15	=15	=15
8B-\L	My	my
8c\J	.	.
8B-\	za-	za-
8B-\L	-nuć-	-nuć-
8c\J	.	.
8B-\	-my	-my
=16	=16	=16
!LO:TX:t=P:problem=korekta tekstu	!	!
4B-\	Spiew	śpiew
8B-\	we-	we-
4B-\	-so-	-so-
8B-\	-ły	-ły,
=17	=17	=17
8B-\L	My	my
8c\J	.	.
8B-\	za-	za-
8B-\L	-nuć-	-nuć-
8c\J	.	.
8B-\	-my	-my
!!LO:LB:g=original
=18	=18	=18
4B-\	śpiew	śpiew
8B-\	we-	we-
4B-\	-so-	-so-
8B-\	-ły	-ły,
=19	=19	=19
8e-\L	My	my
8d\J	.	.
8c\	za-	za-
8d\L	-nuć-	-nuć-
8c\J	.	.
8A-/	-my	-my
=20	=20	=20
(<4.A-/	śpiew	śpiew
8G/L	.	.
8A-/J)	.	.
8F/	we-	we-
=21	=21	=21
4.G/	-so-	-so-
8G/	-ły	-ły,
8r	.	.
8r	.	.
!!LO:LB:g=original
=22	=22	=22
8G/	Wszak	wszak
8G/	ma-	ma-
8G/	-my	-my
8G/	Kom-	kom-
8G/	-po-	-po-
8G/	-zy-	-zy-
=23	=23	=23
4.B-\	-to-	-to-
8B-\	-ra	-ra
!LO:TX:t=P:problem=korekta tekstu	!	!
8B-\	mia-	mia-
8B-\	-ry	-ry
=24	=24	=24
8A-/L	Pi-	pi-
8G/J	.	.
8A-/	-jars-	-jar-
8A-/L	-kie-	-skie-
8G/J	.	.
8A-/	-go	-go
=25	=25	=25
4B-/	Dy-	dy-
8c/	-re-	-re-
4c/	-kto-	-kto-
8B-/	-ra	-ra.
!!LO:LB:g=original
=26	=26	=26
4r	.	.
8r	.	.
8r	.	.
8d\	W_je-	W_je-
8c#X\	-go	-go
=27	=27	=27
8d\	gło-	gło-
8B-\	-wie	-wie,
8r	.	.
8r	.	.
8d\	w_je-	w_je-
8d\	-go	-go
=28	=28	=28
4.e-\	gło-	gło-
8e-\	-wie	-wie
8r	.	.
8r	.	.
=29	=29	=29
4.c\	drze-	drze-
4.c\	-mią	-mią
!!LO:LB:g=original
=30	=30	=30
4.B-\	to-	to-
8B-\	-ny	-ny,
8r	.	.
8r	.	.
=31	=31	=31
!LO:TX:a:t=2.:mod=	!	!
2.r	.	.
=32	=32	=32
2.r	.	.
=33	=33	=33
8BB-/L	on	on
8C/J	.	.
8D/	nam	nam
8E-/L	skle-	skle-
8F/J	.	.
8G/	i	i
=34	=34	=34
8A-/L	wnet	wnet
8G/J	.	.
8F/	Ka-	ka-
4G/	-no-	-no-
8E-/	-ny	-ny,
!!LO:LB:g=original
=35	=35	=35
4B-\	wnet	wnet
8B-\	Ka-	ka-
4B-\	-no-	-no-
8B-\	-ny	-ny,
=36	=36	=36
8B-\L	on	on
8c\J	.	.
8B-\	nam	nam
8B-\L	skle-	skle-
8c\J	.	.
8B-\	-i	-i
=37	=37	=37
4B-\	wnet	wnet
8B-\	Ka-	ka-
4B-\	-no-	-no-
8B-\	-ny	-ny,
=38	=38	=38
8B-\L	on	on
8c\J	.	.
8B-\	nam	nam
8B-\L	skle-	skle-
8c\J	.	.
8B-\	-i	-i
!!LO:LB:g=original
=39	=39	=39
4B-\	wnet	wnet
8B-\	Ka-	ka-
4B-\	-no-	-no-
8B-\	-ny	-ny,
=40	=40	=40
8e-\L	on	on
8d\J	.	.
8c\	nam	nam
8d\L	skle-	skle-
8c\J	.	.
8A-/	-i	-i
=41	=41	=41
(<4.A-/	wnet	wnet
8G/L	.	.
8A-/J)	.	.
8F/	Ka-	ka-
=42	=42	=42
4.G/	-no-	-no-
8G/	-ny	-ny.
8r	.	.
8r	.	.
!!LO:LB:g=original
=43	=43	=43
8G/	So-	So-
8G/	-pra-	-pra-
8G/	-ny	-ny
8G/	jak-	jak-
8G/	-by	-by
8G/	A-	a-
=44	=44	=44
4.B-\	-nio-	-nio-
8B-\	-ły	-ły
8B-\	i	i
8B-\	nie	nie
=45	=45	=45
8A-/L	la-	la-
8G/J	.	.
8A-/	-da	-da,
8A-/L	la-	la-
8G/J	.	.
8A-/	-da	-da
!!LO:LB:g=original
=46	=46	=46
4B-\	Te-	te-
8c\	-no-	-no-
4c\	-rzy-	-rzy-
8B-\	-ści	-ści,
=47	=47	=47
4r	.	.
8r	.	.
8r	.	.
8d\	i	i
8c#X\	Al-	al-
=48	=48	=48
8d\	-ty-	-ty-
8B-\	-ści	-ści,
8r	.	.
8r	.	.
8d\	i	i
8d\	Al-	al-
=49	=49	=49
4.e-\	-ty-	-ty-
8e-\	-ści	-ści,
8r	.	.
8r	.	.
!!LO:LB:g=original
=50	=50	=50
4.c\	i	i
4.c\	bas-	ba-
=51	=51	=51
4.B-\	-si-	-si-
8B-\	-ści	-ści.
8r	.	.
8r	.	.
=52	=52	=52
!LO:TX:a:t=2.:mod=	!	!
2.r	.	.
=53	=53	=53
2.r	.	.
!LO:TX:b:rj:t=VS.	!	!
!!LO:PB:g=original
=54	=54	=54
8BB-/L	Kwar-	Kwar-
8C/J	.	.
8D/	-tet	-tet
8E-/L	bę-	bę-
8F/J	.	.
8G/	-dzie	-dzie
=55	=55	=55
8A-/L	więc	więc
8G/J	.	.
8F/	we-	we-
4G/	-so-	-so-
8E-/	-ły	-ły,
=56	=56	=56
4B-\	Kwar-	kwar-
8B-\	-tet	-tet
4B-\	bę-	bę-
!LO:TX:t=P:korekta:problem	!	!
8B-\	-dzie	-dzie,
!!LO:LB:g=original
=57	=57	=57
8B-\L	Kwar-	kwar-
8c\J	.	.
8B-\	-tet	-tet
8B-\L	bę-	bę-
8c\J	.	.
8B-\	-dzie	-dzie
=58	=58	=58
4B-\	więc	więc
8B-\	we-	we-
4B-\	-so-	-so-
8B-\	-ły	-ły,
=59	=59	=59
8B-\L	Kwar-	kwar-
8c\J	.	.
8B-\	-tet	-tet
8B-\L	bę-	bę-
8c\J	.	.
8B-\	-dzie	-dzie
=60	=60	=60
4B-\	więc	więc
8B-\	we-	we-
4B-\	-so-	-so-
8B-\	-ły	-ły,
!!LO:LB:g=original
=61	=61	=61
8e-\L	Kwar-	kwar-
8d\J	.	.
8c\	-tet	-tet
8d\L	bę-	bę-
8c\J	.	.
8A-/	-dzie	-dzie
=62	=62	=62
(<4.A-/	więc	więc
8G/L	.	.
8A-/J)	.	.
8F/	we-	we-
=63	=63	=63
4.G/	-so-	-so-
8G/	-ły	-ły.
8r	.	.
8r	.	.
=64	=64	=64
8G/	Czas	Czas
8G/	mi-	mi-
8G/	-le	-le
8G/	pły-	pły-
8G/	-nie	-nie
8G/	w_za-	w_za-
!!LO:LB:g=original
=65	=65	=65
4.B-\	-ba-	-ba-
8B-\	-wie	-wie,
!LO:TX:t=P:problem=korekta tekstu	!	!
8B-\	pły-	pły-
8B-\	-nie	-nie
=66	=66	=66
8A-/L	dla	dla
8G/J	.	.
8A-/	Mu-	mu-
8A-/L	-zy-	-zy-
8G/J	.	.
8A-/	-ki	-ki
=67	=67	=67
4B-\	przy-	przy-
8c\	-je-	-je-
4c\	-mno-	-mno-
8B-\	-ści	-ści.
=68	=68	=68
4r	.	.
8r	.	.
8r	.	.
8d\	my	My
8c#X\	się	się
!!LO:LB:g=original
=69	=69	=69
8d\	łą-	łącz-
8B-\	-czém	-my,
8r	.	.
8r	.	.
8d\	my	my
8d\	się	się
=70	=70	=70
4.e-\	łą-	łącz-
8e-\	-czém	-my
8r	.	.
8r	.	.
=71	=71	=71
4.c\	więc	więc
4.c\	w_je-	w_je-
=72	=72	=72
4.B-\	-dno-	-dno-
8B-\	-ści	-ści,
8r	.	.
8r	.	.
!!LO:LB:g=original
=73	=73	=73
!LO:TX:a:t=2.:mod=	!	!
2.r	.	.
=74	=74	=74
2.r	.	.
=75	=75	=75
8BB-/L	dą-	dą-
8C/J	.	.
8D/	-żąc	-żąc
8E-/L	Ku	ku
8F/J	.	.
8G/	po-	po-
=76	=76	=76
8A-/L	-wszech-	-wszech-
8G/J	.	.
8F/	-néj	-nej
4G/	sła-	sła-
8E-/	-wie	-wie,
=77	=77	=77
4B-/	dą-	dą-
8B-/	-żąc	-żąc,
4B-/	dą-	dą-
8B-/	-żąc	-żąc,
!!LO:LB:g=original
=78	=78	=78
8B-\L	dą-	dą-
8c\J	.	.
8B-\	-żąc	-żąc
8B-\L	Ku	ku
8c\J	.	.
8B-\	po-	po-
=79	=79	=79
4B-\	-wszech-	-wszech-
8B-\	-néj	-nej
4B-\	sła-	sła-
8B-\	-wie	-wie,
=80	=80	=80
!LO:TX:t=P:problem=korekta tekstu	!	!
8B-\L	dą-	dą-
8c\J	.	.
8B-\	-żąc	-żąc
8B-\L	Ku	ku
8c\J	.	.
8B-\	po-	po-
!!LO:LB:g=original
=81	=81	=81
4B-\	-wszech-	-wszech-
8B-\	-néj	-nej
4B-\	sła-	sła-
8B-\	-wie	-wie,
=82	=82	=82
8e-\L	dą-	dą-
8d\J	.	.
8c\	-żąc	-żąc
8d\L	Ku	ku
8c\J	.	.
8A-/	po-	po-
=83	=83	=83
(<4.A-/	-wsze-	-wszech-
8G/L	.	.
8A-/J)	.	.
8F/	-chnéj	-nej
=84	=84	=84
4.G/	sła-	sła-
8G/	-wie	-wie.
8r	.	.
!LO:TX:t=P:korekta:problem	!	!
8B-/	niech	Niech
!!LO:LB:g=original
=85	=85	=85
4.B-\	ży-	ży-
4B-\	-je	-je
8B-\	Pi-	pi-
=86	=86	=86
4.B-\	-jar-	-jar-
4.B-\	-ski	-ski
=87	=87	=87
2.B-;\	Chór	chór!
!!LO:PB:g=original
==	==	==
*-	*-	*-
!!!RDF**kern: < = below
!!!RDF**kern: > = above
!!!filter-modern: sic -sq | autostem -r | tie -s | shed -e "s/t=P:/T=P:/L" | modori -m
!!!ENC: Marta Chmielewska
!!!END: 2021-05-26
!!!ENC: Katarzyna Serwa
!!!END: 2021-05-13
!!!ENC-modern: Katarzyna Serwa
!!!END-modern: 2022-07-11
